X:53
T: Der betruegerische Freier
N: Q0042G
O: Mitteleuropa, Deutschland
R: Ballade, Braut - Werbung, Betrug; tragisch
M: 2/4
L: 1/16
K: Bb
F2 | d2d2c2c2 | B2B2F2
F2 | G2G2B2G2 | F4z2
FE | D2F2B2c2 | d3cB2
A2 | G2c2d2e2 | f3ed2
c2 | B2B2BAGA | B4z2

@@@ Tune index: 789
